X: 1
T: reel des Acadiens
C: E. Arsenault
S: Roaring Jelly collection
M: C|
Z: Transcribed to abc by Mary Lou Knack
R: reel
K: A
af |\
"A"eece AAce | fece "D"feaf | "A"eece "F#m"feaf | "B(m)"ecAc "E7"B2af |
"A"eece AAce | fece "D"feaf | "A"eece "D"feaf | "E7"ecBc "A"A2 :|
|: ze |\
"A"ABcd eeea | "D"feaf "E7"ecBc | "A"ABcd "F#m"eeea | "B7"fecA "E7"B2cB |
"A"ABcd eeea | "D"feaf "E7"ecBc | "A"ABcd ecaf | "E7"ecBc "A"A2 :|
